X:1
T:Title
%%score [ ( 1 2 ) ( 3 4 ) ]
L:1/8
Q:1/4=120
M:4/2
K:C
V:1 treble nm="Midi_74"
V:2 treble 
V:3 bass nm="Midi_74"
V:4 bass 
V:1
[K:Bb]"^Johann Heermann\n(1585-1647)" G4 | G4 G4 ^F4 D4 |"^Herzliebster Jesu" G4 A4 B4 B4 | %3
w: Herz-|lieb- ster Je- su,|was hast du ver-|
w: Was|ist doch wohl die|Ur- sach sol- cher|
w: Wie|wun- der- bar- lich|ist doch die- se|
"^Melody by Johann Crüger\n(1598-1662)" (c4 B4) A4 ||[M:4/2] A4 | B4 c4 (d2 c2) B4 | %6
w: bro * chen,|dass|man ein solch * scharf|
w: Pla * gen?|Ach,|mei- ne Sün * den|
w: Stra * fe!|Der|gu- te Hir- * te|
 e4 e4 (d2 c2) d4 | c8 B4 || B4 | A4 G4 F4 (D2 !courtesy!_E2) | F4 F4 G4 F4 | E8 D4 || d4 | %13
w: Ur- teil hat * ge-|spro- chen?|Was|ist die Schuld, in *|was für Mis- se-|ta- ten|bist|
w: ha- ben dich * ge-|schla- gen;|ich,|mein Herr Je- su, *|ha- be dies ver-|schul- det,|was|
w: lei- det für * die|Scha- fe,|die|Schuld be- zahlt der *|Her- re, der Ge-|rech- te,|für|
 c4 B4 A8 | G12 |] %15
w: du ge- ra-|ten?|
w: du er- dul-|det.|
w: sei- ne Knech-|te.|
V:2
[K:Bb] D4 | E4 (B,2 C2) D4 A,4 | D4 D4 D4 D4 | D8 D4 ||[M:4/2] ^F4 | G4 A4 B4 F4 | %6
 E4 F4 F4 (B2 A2) | (G4 F2 E2) D4 || D4 | =E4 ^C4 D4 A,4 | (D2 E2) (F2 D2) E4 D4 | %11
 (D4 C2 B,2) A,4 || B,4 | E4 D4 (D6 C2) | B,12 |] %15
V:3
[K:Bb] B,4 | C4 G,4 A,4 ^F,4 | G,4 ^F,4 (G,2 A,2) B,4 | (A,4 G,4) ^F,4 ||[M:4/2] D4 | %5
 D4 E4 (F2 E2) (D2 C2) | B,4 C4 B,4 B,4 | (B,4 A,4) F,4 || G,4 | A,4 A,4 A,4 F,4 | %10
 B,4 B,4 B,4 (B,2 A,2) |"^This edition  Andrew Sims 2018" G,8 ^F,4 || G,4 | %13
 (G,2 ^F,2) G,4 (G,4 F,4) | G,12 |] %15
V:4
[K:Bb] G,4 | (C,2 D,2) E,4 D,4 C,4 | B,,4 D,4 G,,4 G,4 | (^F,4 G,4) D,4 ||[M:4/2] D,4 | %5
 G,4 C4 B,4 _A,4 | G,4 !courtesy!=A,4 (B,2 A,2) (G,2 F,2) | (E,4 F,4) B,,4 || G,4 | %9
 ^C,4 A,,4 D,4 (D,2 =C,2) | (B,,2 C,2) (D,2 B,,2) E,4 B,,4 | C,8 D,4 || G,,4 | %13
 A,,4 (B,,2 C,2) D,8 | G,,12 |] %15

